X: 1
T: Mountains Of Mourne, The
M: 4/4
L: 1/8
R: reel
K: Gmaj
d4|B2 dc BA|G2 A2 E2 GE|D2 EF G2 AB|c6 Bc|
d2 B2 c2 BA|G2 A2 E2 GE|D2 EF G2 G2|G4 GA|
B3A G2 AB|c2 d2 d2 ge|d2 B2 G2 AB|c6 Bc|
d2 B2 dc BA|G2 A2 E2 GE|D2 EF G2 G2|G4 :|
